X: 24737
T: Madam Frederick
R: strathspey
M: 4/4
K: Amajor
c|(A,>B,)(C>D) (~E>F) E<(C|A,)>C E<C E<AA>.c|(A,>B,)(C>D) ~E>F E<C|B,>B (d/c/)(B/A/) G<BB>.c|
A,>B,)(C>D) ~E>F E<C|(A,>C) E<C E<AA>.c|ecAE Fdfe|dcBA GBB||
c|A<A {AB}c>A e>Ac>A|[A,E]>Ac>A f/e/d/c/ Bc|A<A {AB}c>A eAcA|~F>A (F/E/)(D/C/) B,BB.c|
A<Ac>A e>Ac>A|[A,E]>Ac>A f/e/d/c/ Bc|A>c A<E ~F>A F<D|E>DC>B, A,AA||

